icon-themes/breeze_svg/cmd/32/objectalignright.svg

<svg viewBox="0 0 32 32" xmlns="http://www.w3.org/2000/svg"><path d="m4 4v10h20v-10zm22 0v24h2v-24zm-21 1h18v8h-18zm9 13v10h10v-10zm1 1h8v8h-8z" fill="#4d4d4d"/></svg>

<svg xmlns="http://www.w3.org/2000/svg" viewBox="0 0 32 32">
 <path 
     style="fill:#4d4d4d" 
     d="M 4 4 L 4 14 L 24 14 L 24 4 L 4 4 z M 26 4 L 26 28 L 28 28 L 28 4 L 26 4 z M 5 5 L 23 5 L 23 13 L 5 13 L 5 5 z M 14 18 L 14 28 L 24 28 L 24 18 L 14 18 z M 15 19 L 23 19 L 23 27 L 15 27 L 15 19 z "
     />
</svg>
